src/fileIcons/FileIconUndefined/FileIconUndefined_size_s.svg

<svg viewBox="0 0 21 28" xmlns="http://www.w3.org/2000/svg">
  <path
    d="M19.6 0H1.4C0.626801 0 0 0.626801 0 1.4V26.6C0 27.3732 0.626801 28 1.4 28H19.6C20.3732 28 21 27.3732 21 26.6V1.4C21 0.626801 20.3732 0 19.6 0Z"
  />
  <path
    d="M14 10.64C14 11.2 13.9733 11.62 13.92 11.9C13.8667 12.1667 13.7467 12.44 13.56 12.72L11.04 15V17H9V14.5L11.92 11.58C11.9733 11.3933 12 11.14 12 10.82V10.3C12 9.88667 11.88 9.56667 11.64 9.34C11.4 9.11333 11.0333 9 10.54 9H8V7H10.3C12.54 7 14 8 14 10V10.64ZM11 19V21H9V19H11Z"
    fill="#fff"
  />
</svg>

<svg viewBox="0 0 21 28" xmlns="http://www.w3.org/2000/svg">
  <path
    d="M19.6 0H1.4A1.4 1.4 0 000 1.4v25.2A1.4 1.4 0 001.4 28h18.2a1.4 1.4 0 001.4-1.4V1.4A1.4 1.4 0 0019.6 0z"
  />
  <path
    fill="#fff"
    d="M14 10.64c0 .56-.027.98-.08 1.26-.053.267-.173.54-.36.82L11.04 15v2H9v-2.5l2.92-2.92c.053-.187.08-.44.08-.76v-.52c0-.413-.12-.733-.36-.96-.24-.227-.607-.34-1.1-.34H8V7h2.3c2.24 0 3.7 1 3.7 3v.64zM11 19v2H9v-2h2z"
  />
</svg>
